X: 14576
T: Gan Ainm
R: reel
M: 4/4
K: Gdorian
Gzdz d2Gz|d2cz fzcz|Azcz dzcz|AzAz fzAz|
Gzdz d2Gz|d2cz fzaz|c'zgz fzcz|FzAz G4:|

